source/images/flags/fo.svg

<svg xmlns="http://www.w3.org/2000/svg" height="480" width="640" version="1">
  <defs>
    <clipPath id="a">
      <path fill-opacity=".67" d="M-78.015 32h640v480h-640z"/>
    </clipPath>
  </defs>
  <g fill-rule="evenodd" clip-path="url(#a)" transform="translate(78.02 -32)" stroke-width="0">
    <path fill="#fff" d="M-78.015 32h663.91v480h-663.91z"/>
    <path d="M-76.033 218.67h185.9V32h106.23v186.67h371.79v106.67h-371.79v186.67h-106.23V325.34h-185.9V218.67z" fill="#003897"/>
    <path d="M-76.033 245.33h212.45V32h53.113v213.33h398.35v53.333H189.53v213.33h-53.113v-213.33h-212.45V245.33z" fill="#d72828"/>
  </g>
</svg>

<svg xmlns="http://www.w3.org/2000/svg" height="480" width="640" version="1"><defs><clipPath id="a"><path fill-opacity=".67" d="M-78.02 32h640v480H-78z"/></clipPath></defs><g fill-rule="evenodd" clip-path="url(#a)" transform="translate(78 -32)" stroke-width="0"><path fill="#fff" d="M-78.02 32h663.9v480H-78z"/><path d="M-76.03 218.67h185.9V32H216.1v186.67h371.8v106.67H216.1V512H109.87V325.35h-185.9V218.67z" fill="#003897"/><path d="M-76.03 245.33h212.45V32h53.1v213.33H587.9v53.33H189.53V512h-53.1V298.65H-76.04v-53.33z" fill="#d72828"/></g></svg>
